storage/app/icons/phosphoricons/regular/crane-tower.svg

<svg xmlns="http://www.w3.org/2000/svg" fill="currentColor" viewBox="0 0 256 256"><path d="M240 80H108.94L87.16 36.42A8 8 0 0 0 80 32H48a8 8 0 0 0-8 8v40H24a8 8 0 0 0 0 16h16v112H24a8 8 0 0 0 0 16h104a8 8 0 0 0 0-16h-16V96h96v88h-16v-8a8 8 0 0 0-16 0v8a16 16 0 0 0 16 16h16a16 16 0 0 0 16-16V96h16a8 8 0 0 0 0-16M56 48h19.06l16 32H56Zm0 160v-48h40v48Zm40-64H56V96h40Z"/></svg>

<svg xmlns="http://www.w3.org/2000/svg" viewBox="0 0 256 256" fill="currentColor"><path d="M240,80H108.94L87.16,36.42A8,8,0,0,0,80,32H48a8,8,0,0,0-8,8V80H24a8,8,0,0,0,0,16H40V208H24a8,8,0,0,0,0,16H128a8,8,0,0,0,0-16H112V96h96v88H192v-8a8,8,0,0,0-16,0v8a16,16,0,0,0,16,16h16a16,16,0,0,0,16-16V96h16a8,8,0,0,0,0-16ZM56,48H75.06l16,32H56Zm0,160V160H96v48Zm40-64H56V96H96Z"/></svg>
